public/images/patterns/leaf-thumbnail.svg

<svg width="50" height="50" viewBox="0 0 50 50" fill="none" xmlns="http://www.w3.org/2000/svg">
<path d="M15.494 12.2529C15.8359 13.5324 15.8353 14.8794 15.4923 16.1586C15.1492 17.4378 14.4757 18.6042 13.5395 19.5405C12.6033 20.4768 11.4373 21.1502 10.1586 21.4929C8.87993 21.8357 7.53363 21.8357 6.25495 21.493C5.91382 20.2138 5.91504 18.8673 6.25848 17.5886C6.60192 16.31 7.2755 15.1442 8.2116 14.2084C9.1477 13.2726 10.3134 12.5996 11.5916 12.257C12.8698 11.9144 14.2157 11.9143 15.494 12.2567V12.2529ZM7.34012 20.9426C8.3699 21.0765 9.41666 20.9721 10.3997 20.6373C11.3828 20.3025 12.2759 19.7464 13.0102 19.0117C13.7445 18.277 14.3003 17.3834 14.6349 16.3999C14.9695 15.4163 15.0739 14.369 14.9401 13.3386L7.34012 20.9426ZM10.053 13.7156V17.1651L14.405 12.8071C12.9129 12.6186 11.3718 12.9202 10.0455 13.7119L10.053 13.7156ZM8.73803 14.7411C7.19317 16.2867 6.54885 18.3941 6.80507 20.4073L9.29569 17.9191V14.2397C9.10352 14.3942 8.91889 14.5601 8.73803 14.7411Z" fill="white"/>
<path d="M44.1439 12.2529C44.4859 13.5324 44.4853 14.8794 44.1422 16.1586C43.7992 17.4378 43.1257 18.6042 42.1895 19.5405C41.2532 20.4768 40.0872 21.1502 38.8086 21.4929C37.5299 21.8357 36.1836 21.8357 34.9049 21.493C34.5638 20.2138 34.565 18.8673 34.9084 17.5886C35.2519 16.31 35.9255 15.1442 36.8616 14.2084C37.7977 13.2726 38.9633 12.5996 40.2416 12.257C41.5198 11.9144 42.8656 11.9143 44.1439 12.2567V12.2529ZM35.9901 20.9426C37.0199 21.0765 38.0666 20.9721 39.0497 20.6373C40.0327 20.3025 40.9258 19.7464 41.6601 19.0117C42.3944 18.277 42.9503 17.3834 43.2849 16.3999C43.6195 15.4163 43.7239 14.369 43.59 13.3386L35.9901 20.9426ZM38.703 13.7156V17.1651L43.055 12.8071C41.5629 12.6186 40.0218 12.9202 38.6955 13.7119L38.703 13.7156ZM37.388 14.7411C35.8431 16.2867 35.1988 18.3941 35.455 20.4073L37.9456 17.9191V14.2397C37.7535 14.3942 37.5689 14.5601 37.388 14.7411Z" fill="white"/>
<path d="M29.494 35.2529C29.8359 36.5324 29.8353 37.8794 29.4923 39.1586C29.1492 40.4378 28.4757 41.6042 27.5395 42.5405C26.6033 43.4768 25.4373 44.1502 24.1586 44.4929C22.8799 44.8357 21.5336 44.8357 20.2549 44.493C19.9138 43.2138 19.915 41.8673 20.2585 40.5886C20.6019 39.31 21.2755 38.1442 22.2116 37.2084C23.1477 36.2726 24.3134 35.5996 25.5916 35.257C26.8698 34.9144 28.2157 34.9143 29.494 35.2567V35.2529ZM21.3401 43.9426C22.3699 44.0765 23.4167 43.9721 24.3997 43.6373C25.3828 43.3025 26.2759 42.7464 27.0102 42.0117C27.7445 41.277 28.3003 40.3834 28.6349 39.3999C28.9695 38.4163 29.0739 37.369 28.9401 36.3386L21.3401 43.9426ZM24.053 36.7156V40.1651L28.405 35.8071C26.9129 35.6186 25.3718 35.9202 24.0455 36.7119L24.053 36.7156ZM22.738 37.7411C21.1932 39.2867 20.5488 41.3941 20.8051 43.4073L23.2957 40.9191V37.2397C23.1035 37.3942 22.9189 37.5601 22.738 37.7411Z" fill="white"/>
<path d="M29.494 5.2529C29.8359 6.5324 29.8353 7.87941 29.4923 9.15861C29.1492 10.4378 28.4757 11.6042 27.5395 12.5405C26.6033 13.4768 25.4373 14.1502 24.1586 14.4929C22.8799 14.8357 21.5336 14.8357 20.2549 14.493C19.9138 13.2138 19.915 11.8673 20.2585 10.5886C20.6019 9.30998 21.2755 8.14424 22.2116 7.20841C23.1477 6.27258 24.3134 5.5996 25.5916 5.25702C26.8698 4.91444 28.2157 4.91432 29.494 5.25667V5.2529ZM21.3401 13.9426C22.3699 14.0765 23.4167 13.9721 24.3997 13.6373C25.3828 13.3025 26.2759 12.7464 27.0102 12.0117C27.7445 11.277 28.3003 10.3834 28.6349 9.39987C28.9695 8.41629 29.0739 7.36897 28.9401 6.33865L21.3401 13.9426ZM24.053 6.71564V10.1651L28.405 5.80709C26.9129 5.61859 25.3718 5.92018 24.0455 6.71187L24.053 6.71564ZM22.738 7.74107C21.1932 9.28674 20.5488 11.3941 20.8051 13.4073L23.2957 10.9191V7.23966C23.1035 7.39423 22.9189 7.56011 22.738 7.74107Z" fill="white"/>
<path d="M29.794 20.0529C30.1359 21.3324 30.1353 22.6794 29.7922 23.9586C29.4492 25.2378 28.7757 26.4042 27.8395 27.3405C26.9033 28.2768 25.7372 28.9502 24.4586 29.2929C23.1799 29.6357 21.8336 29.6357 20.5549 29.293C20.2138 28.0138 20.215 26.6673 20.5585 25.3886C20.9019 24.11 21.5755 22.9442 22.5116 22.0084C23.4477 21.0726 24.6134 20.3996 25.8916 20.057C27.1698 19.7144 28.5157 19.7143 29.794 20.0567V20.0529ZM21.6401 28.7426C22.6699 28.8765 23.7167 28.7721 24.6997 28.4373C25.6828 28.1025 26.5759 27.5464 27.3102 26.8117C28.0444 26.077 28.6003 25.1834 28.9349 24.1999C29.2695 23.2163 29.3739 22.169 29.2401 21.1387L21.6401 28.7426ZM24.353 21.5156V24.9651L28.705 20.6071C27.2129 20.4186 25.6718 20.7202 24.3455 21.5119L24.353 21.5156ZM23.038 22.5411C21.4932 24.0867 20.8488 26.1941 21.1051 28.2073L23.5957 25.7191V22.0397C23.4035 22.1942 23.2189 22.3601 23.038 22.5411Z" fill="white"/>
<path d="M15.494 27.2029C15.8359 28.4824 15.8353 29.8294 15.4923 31.1086C15.1492 32.3878 14.4757 33.5542 13.5395 34.4905C12.6033 35.4268 11.4373 36.1002 10.1586 36.4429C8.87993 36.7857 7.53363 36.7857 6.25495 36.443C5.91382 35.1638 5.91504 33.8173 6.25848 32.5386C6.60192 31.26 7.2755 30.0942 8.2116 29.1584C9.1477 28.2226 10.3134 27.5496 11.5916 27.207C12.8698 26.8644 14.2157 26.8643 15.494 27.2067V27.2029ZM7.34012 35.8926C8.3699 36.0265 9.41666 35.9221 10.3997 35.5873C11.3828 35.2525 12.2759 34.6964 13.0102 33.9617C13.7445 33.227 14.3003 32.3334 14.6349 31.3499C14.9695 30.3663 15.0739 29.319 14.9401 28.2886L7.34012 35.8926ZM10.053 28.6656V32.1151L14.405 27.7571C12.9129 27.5686 11.3718 27.8702 10.0455 28.6619L10.053 28.6656ZM8.73803 29.6911C7.19317 31.2367 6.54885 33.3441 6.80507 35.3573L9.29569 32.8691V29.1897C9.10352 29.3442 8.91889 29.5101 8.73803 29.6911Z" fill="white"/>
<path d="M43.494 27.2029C43.8359 28.4824 43.8353 29.8294 43.4923 31.1086C43.1492 32.3878 42.4757 33.5542 41.5395 34.4905C40.6033 35.4268 39.4373 36.1002 38.1586 36.4429C36.8799 36.7857 35.5336 36.7857 34.2549 36.443C33.9138 35.1638 33.915 33.8173 34.2585 32.5386C34.6019 31.26 35.2755 30.0942 36.2116 29.1584C37.1477 28.2226 38.3134 27.5496 39.5916 27.207C40.8698 26.8644 42.2157 26.8643 43.494 27.2067V27.2029ZM35.3401 35.8926C36.3699 36.0266 37.4167 35.9221 38.3997 35.5873C39.3828 35.2525 40.2759 34.6964 41.0102 33.9617C41.7445 33.227 42.3003 32.3334 42.6349 31.3499C42.9695 30.3663 43.0739 29.319 42.9401 28.2887L35.3401 35.8926ZM38.053 28.6656V32.1151L42.405 27.7571C40.9129 27.5686 39.3718 27.8702 38.0455 28.6619L38.053 28.6656ZM36.738 29.6911C35.1932 31.2367 34.5488 33.3441 34.8051 35.3573L37.2957 32.8691V29.1897C37.1035 29.3442 36.9189 29.5101 36.738 29.6911Z" fill="white"/>
</svg>

<svg xmlns="http://www.w3.org/2000/svg" width="50" height="50" fill="none"><path fill="#fff" d="M15.494 12.253a7.553 7.553 0 0 1-1.954 7.288 7.542 7.542 0 0 1-7.285 1.952 7.551 7.551 0 0 1 5.337-9.236 7.539 7.539 0 0 1 3.902 0v-.004Zm-8.154 8.69a6.779 6.779 0 0 0 7.295-4.543 6.79 6.79 0 0 0 .305-3.061l-7.6 7.604Zm2.713-7.227v3.45l4.352-4.359a6.838 6.838 0 0 0-4.36.905l.008.004ZM8.738 14.74a6.785 6.785 0 0 0-1.933 5.666l2.49-2.488v-3.68a6.88 6.88 0 0 0-.557.502ZM44.144 12.253a7.55 7.55 0 0 1-5.335 9.24 7.539 7.539 0 0 1-3.904 0 7.552 7.552 0 0 1 1.957-7.285 7.543 7.543 0 0 1 7.282-1.951v-.004Zm-8.154 8.69a6.779 6.779 0 0 0 7.295-4.543c.335-.984.439-2.031.305-3.061l-7.6 7.604Zm2.713-7.227v3.45l4.352-4.359a6.838 6.838 0 0 0-4.36.905l.008.004Zm-1.315 1.025a6.785 6.785 0 0 0-1.933 5.666l2.49-2.488v-3.68c-.191.155-.376.321-.557.502ZM29.494 35.253a7.553 7.553 0 0 1-1.954 7.288 7.542 7.542 0 0 1-7.285 1.952 7.55 7.55 0 0 1 5.337-9.236 7.539 7.539 0 0 1 3.902 0v-.004Zm-8.154 8.69a6.779 6.779 0 0 0 7.295-4.543 6.79 6.79 0 0 0 .305-3.061l-7.6 7.604Zm2.713-7.227v3.45l4.352-4.359a6.838 6.838 0 0 0-4.36.905l.008.004Zm-1.315 1.025a6.785 6.785 0 0 0-1.933 5.666l2.49-2.488v-3.68c-.192.155-.376.321-.557.502ZM29.494 5.253a7.553 7.553 0 0 1-1.954 7.287 7.542 7.542 0 0 1-7.285 1.953 7.55 7.55 0 0 1 5.337-9.236 7.54 7.54 0 0 1 3.902 0v-.004Zm-8.154 8.69A6.779 6.779 0 0 0 28.635 9.4a6.79 6.79 0 0 0 .305-3.061l-7.6 7.604Zm2.713-7.227v3.45l4.352-4.359a6.838 6.838 0 0 0-4.36.905l.008.004ZM22.738 7.74a6.785 6.785 0 0 0-1.933 5.666l2.49-2.488V7.24c-.192.155-.376.321-.557.502ZM29.794 20.053a7.552 7.552 0 0 1-5.335 9.24 7.539 7.539 0 0 1-3.904 0 7.55 7.55 0 0 1 5.337-9.236 7.539 7.539 0 0 1 3.902 0v-.004Zm-8.154 8.69a6.779 6.779 0 0 0 7.295-4.543 6.79 6.79 0 0 0 .305-3.061l-7.6 7.604Zm2.713-7.227v3.45l4.352-4.359a6.838 6.838 0 0 0-4.36.905l.008.004Zm-1.315 1.025a6.785 6.785 0 0 0-1.933 5.666l2.49-2.488v-3.68c-.191.155-.376.321-.557.502ZM15.494 27.203a7.553 7.553 0 0 1-1.954 7.287 7.542 7.542 0 0 1-7.285 1.953 7.551 7.551 0 0 1 5.337-9.236 7.539 7.539 0 0 1 3.902 0v-.004Zm-8.154 8.69a6.779 6.779 0 0 0 7.295-4.543 6.79 6.79 0 0 0 .305-3.061l-7.6 7.604Zm2.713-7.227v3.45l4.352-4.359a6.838 6.838 0 0 0-4.36.905l.008.004ZM8.738 29.69a6.785 6.785 0 0 0-1.933 5.666l2.49-2.488v-3.68a6.88 6.88 0 0 0-.557.502ZM43.494 27.203a7.553 7.553 0 0 1-1.955 7.287 7.542 7.542 0 0 1-7.284 1.953 7.55 7.55 0 0 1 5.337-9.236 7.539 7.539 0 0 1 3.902 0v-.004Zm-8.154 8.69a6.777 6.777 0 0 0 7.295-4.543 6.79 6.79 0 0 0 .305-3.061l-7.6 7.604Zm2.713-7.227v3.45l4.352-4.359a6.838 6.838 0 0 0-4.36.905l.008.004Zm-1.315 1.025a6.785 6.785 0 0 0-1.933 5.666l2.49-2.488v-3.68c-.192.155-.376.321-.557.502Z"/></svg>
